svgs/sharp-regular/monitor-waveform.svg

<svg xmlns="http://www.w3.org/2000/svg" viewBox="0 0 576 512"><!--! Font Awesome Pro 6.6.0 by @fontawesome - https://fontawesome.com License - https://fontawesome.com/license (Commercial License) Copyright 2024 Fonticons, Inc. --><path d="M48 80l0 160 128 0 13.6 0 7 11.7 25.5 42.5 60.4-120.9 19.6-39.1 22.5 37.5 41 68.3 58.4 0 24 0 0 48-24 0-72 0-13.6 0-7-11.7-25.5-42.5L245.5 354.7l-19.6 39.1-22.5-37.5-41-68.3L48 288l0 144 480 0 0-352L48 80zM0 32l48 0 480 0 48 0 0 48 0 352 0 48-48 0L48 480 0 480l0-48L0 80 0 32z"/></svg>

<svg xmlns="http://www.w3.org/2000/svg" viewBox="0 0 576 512"><!--! Font Awesome Pro 6.4.0 by @fontawesome - https://fontawesome.com License - https://fontawesome.com/license (Commercial License) Copyright 2023 Fonticons, Inc. --><path d="M48 80V240H176h13.6l7 11.7 25.5 42.5 60.4-120.9 19.6-39.1 22.5 37.5 41 68.3H424h24v48H424 352 338.4l-7-11.7-25.5-42.5L245.5 354.7l-19.6 39.1-22.5-37.5-41-68.3H48V432H528V80H48zM0 32H48 528h48V80 432v48H528 48 0V432 80 32z"/></svg>
